X: 14377
T: Galtee, The
R: reel
M: 4/4
K: Adorian
|:aged cAAG|EAAG ABce|aged cAAG|EGGF G2 ce|
aged cAAG|EAag a2ga|bgag eaaf|1 gedB cAAe:|2 gfed cAAB||
|:c2AB cded|cAAG EAAB|c2AB cded|cABG EGGB|
cBAB cded|cA~A2 a2ga|bgaf gedB|1 cAAG EAAB|2 cAAG EAAe||

